!!! OTL: Berkowitz455
!!! Chapter: 1
!!! Section: IV
!!! Page: 113
!!! Mode: 
!!! Encoder: DJB
**kern
*staff1
*I"Piano
=1-
*clefC4
*k[]
*C:
*M3/4
4.c\
8G/
8c\L
8d\J
=2
8e\L
8c\J
4.f\
8e\
=3
4d\
4.a\
8g\
=4
8f\L
8e\J
8A\L
8B\J
8c\L
8d\J
=5
4.e\
8G/
8f\L
8e\J
=6
2d\
4d#\
=7
4.e\
8c\
8e\L
8a\J
=8
8b\L
8cc\J
8g\L
8e\J
8a\L
8g\J
=9
4.f\
8e\
8d\L
8e\J
=10
!!linebreak:original
8f\L
8e\J
8c\L
8d\J
8e\L
8G\J
=11
4.A\
8f\
8e\L
8c\J
=12
4.a\
8g\
8e\L
8f\J
=13
8g\L
8A\J
8f\L
8e\J
8B\L
8d\J
=14
4.c\
8B\
8e\L
8d\J
=15
2c\
4r
==
*-
